src/lib/packages/icons/src/assets/filled/bug-slash.svg

<svg width="24" height="24" viewBox="0 0 24 24" fill="none" xmlns="http://www.w3.org/2000/svg">
<path d="M11.25 16.991V20.593C11.25 20.779 11.08 20.929 10.897 20.895C10.062 20.741 9.28614 20.415 8.61014 19.949C8.50014 19.869 8.35006 19.649 8.53006 19.469L11.0791 16.9199C11.1421 16.8579 11.25 16.902 11.25 16.991ZM18 13.75H21C21.414 13.75 21.75 13.414 21.75 13C21.75 12.586 21.414 12.25 21 12.25H18V10.72C18 10.43 17.69 10.31 17.5 10.5C17.5 10.5 15.1399 12.8591 12.8379 15.1621C12.7819 15.2181 12.75 15.295 12.75 15.374V20.5911C12.75 20.7781 12.922 20.9281 13.105 20.8941C14.947 20.5511 16.476 19.36 17.313 17.749H18C19.24 17.749 20.25 18.758 20.25 19.999C20.25 20.413 20.586 20.749 21 20.749C21.414 20.749 21.75 20.413 21.75 19.999C21.75 17.931 20.067 16.249 18 16.249H17.856C17.942 15.844 18 15.43 18 14.999V13.75ZM21.5301 2.46999C21.2371 2.17699 20.762 2.17699 20.469 2.46999L15.8621 7.07693C15.5981 7.02893 15.313 7.00002 15 7.00002H9.00003C7.71103 7.00002 6.84402 7.421 6.38602 8.251C6.27902 8.251 6.1821 8.25102 6.1221 8.25002C5.1661 8.23502 4.32604 7.61998 4.03104 6.70998L3.71097 5.76003C3.57897 5.36803 3.15302 5.15809 2.76102 5.28909C2.36802 5.42109 2.1571 5.84701 2.2891 6.24001L2.60697 7.18191C3.08897 8.66691 4.45412 9.68394 6.01712 9.74294C6.01312 9.82994 6.00003 9.909 6.00003 10.001V12.251H3.00003C2.58603 12.251 2.25003 12.587 2.25003 13.001C2.25003 13.415 2.58603 13.751 3.00003 13.751H6.00003V15.001C6.00003 15.588 6.09206 16.1549 6.24906 16.6919L2.47 20.471C2.177 20.764 2.177 21.239 2.47 21.532C2.616 21.678 2.80803 21.752 3.00003 21.752C3.19203 21.752 3.38406 21.679 3.53006 21.532L21.5301 3.53201C21.8231 3.23701 21.8231 2.76299 21.5301 2.46999ZM9.43192 5.50002H14.5681C14.7621 5.50002 14.9191 5.31395 14.8621 5.12795C14.4891 3.89695 13.352 3.00002 12 3.00002C10.648 3.00002 9.51097 3.89695 9.13797 5.12795C9.08097 5.31395 9.23792 5.50002 9.43192 5.50002Z" fill="currentColor"/>
</svg>

<svg xmlns="http://www.w3.org/2000/svg" width="24" height="24" fill="none"><path fill="currentColor" d="M11.25 16.991v3.602c0 .186-.17.336-.353.302a5.913 5.913 0 0 1-2.287-.946c-.11-.08-.26-.3-.08-.48l2.55-2.55a.1.1 0 0 1 .17.072ZM18 13.75h3a.75.75 0 0 0 0-1.5h-3v-1.53c0-.29-.31-.41-.5-.22l-4.662 4.662a.301.301 0 0 0-.088.212v5.217c0 .187.172.337.355.303a5.991 5.991 0 0 0 4.208-3.145H18c1.24 0 2.25 1.009 2.25 2.25a.75.75 0 0 0 1.5 0 3.755 3.755 0 0 0-3.75-3.75h-.144c.086-.405.144-.819.144-1.25V13.75Zm3.53-11.28a.75.75 0 0 0-1.061 0l-4.607 4.607A4.79 4.79 0 0 0 15 7H9c-1.289 0-2.156.421-2.614 1.251l-.264-.001a2.23 2.23 0 0 1-2.091-1.54l-.32-.95a.751.751 0 0 0-1.422.48l.318.942a3.724 3.724 0 0 0 3.41 2.56c-.004.088-.017.168-.017.26v2.25H3a.75.75 0 0 0 0 1.5h3v1.25c0 .587.092 1.154.25 1.69l-3.78 3.78a.75.75 0 0 0 1.06 1.061l18-18a.751.751 0 0 0 0-1.062ZM9.432 5.5h5.136c.194 0 .351-.186.294-.372A2.992 2.992 0 0 0 12 3a2.992 2.992 0 0 0-2.862 2.128c-.057.186.1.372.294.372Z"/></svg>
